src/assets/img/svg_sources/icon_linkedin.svg

<svg width="42" height="42" viewBox="0 0 42 42" fill="none" xmlns="http://www.w3.org/2000/svg">
<circle cx="21" cy="21" r="20" stroke="#5B5B5B" stroke-width="2"/>
<path d="M17.49 16.75C17.49 17.4405 16.935 18 16.25 18C15.565 18 15.01 17.4405 15.01 16.75C15.01 16.06 15.565 15.5 16.25 15.5C16.935 15.5 17.49 16.06 17.49 16.75ZM17.5 19H15V27H17.5V19ZM21.491 19H19.007V27H21.4915V22.8005C21.4915 20.4655 24.506 20.2745 24.506 22.8005V27H27V21.9345C27 17.9945 22.539 18.138 21.491 20.0775V19Z" fill="#DCDCDC"/>
</svg>

<svg width="42" height="42" viewBox="0 0 42 42" fill="none" xmlns="http://www.w3.org/2000/svg"><circle cx="21" cy="21" r="20" stroke="#5B5B5B" stroke-width="2"/><path d="M17.49 16.75c0 .69-.555 1.25-1.24 1.25-.685 0-1.24-.56-1.24-1.25s.555-1.25 1.24-1.25c.685 0 1.24.56 1.24 1.25zM17.5 19H15v8h2.5v-8zm3.991 0h-2.484v8h2.484v-4.2c0-2.335 3.015-2.526 3.015 0V27H27v-5.066c0-3.94-4.461-3.796-5.509-1.857V19z" fill="#DCDCDC"/></svg>
